X: 2
% %vskip 1cm
T: Auld Grey Cat, The
I: Auld Grey Cat, The	R-82	E Dor	reel	Set 9, 18, 24
M: C|
R: reel
K: EDor
% %vskip 1cm
"Em"e2e2 E3F| GFGA BABc| "D"d2d2 D3E| FAdB AFED|
"Em"e2e2 E3F| EFGA BABc| "D"dcBA "B"BAGF|1 "Em"E4 e3^d :|2 "Em"E4 e3|]
|:d| "Em"B2e2 e3d| Bdef gfed| "D"A2d2 d3B| ABde fedf|
   "Em"e2B2 g2B2| "C"a2B2 "B"b3a| "Am"gfed "B"BAB^d|1 "Em"e4 e3 :|2 "Em"e4 e4 |]
% %begintext ragged
%% Transition: Just cut the last note short and play the pickups to the next tune.
% %endtext

#include "RightHeader.h"
% %footer 03/27/19 For use only by Roaring Jelly members
% %text Set 139 NEFFA 2019 continued
$SmallLMargin
$SmallRMargin
% %scale .75
